X:1
T:Monto
M:2/4
L:1/4
K:G
 D/2| G3/4 A/4 B3/4 G/4| E E| D3/4 D/4 D3/4 D/4| E E| G3/4 A/4 B3/4 G/4|\
 E E| D F| G D3/4 D/4| G3/4 A/4 B3/4 G/4| E3/4 E/4 E3/4 E/4| D3/4 D/4 D3/4 D/4|\
 E E| G3/4 A/4 B3/4 G/4| E E| D F3/4 F/4| G3/2 D/2| G3/4 A/4 B3/4 G/4|\
 E E| D D| E E| G3/4 A/4 B3/4 G/4| E E| D F| G z| z F| G z/2||
